X: 20626
T: John Roy Lyall
R: reel
M: 4/4
K: Gmajor
D2|:B2BcA2BA|G2G2A2Bd|e2ged2B2|A4A2D2|B2BcA2BA|G2G2g2fe|d2DGB2A2|1 G6D2:|2 G6ga||
b2d2fga2|g2B2d2gf|e2ged2B2|A4A2ga|b2d2f2ga|g2B2d2ge|d2GBB2A2|G6ga|
b2d2fga2|g2B2d2gf|e2ged2B2|A4A2D2|B2BcA2BA|G2G2g2fe|d2DGB2A2|G6||

